; G-Code generated by Simplify3D(R) Version 3.1.1
; Dec 21, 2016 at 2:59:53 PM
; Settings Summary
;   processName,Process1
;   applyToModels,PLA_temp_tower_195_225_5deg_step
;   profileName,Ryan Neufeld's - Original Prusa i3 MK2 (modified)
;   profileVersion,2016-12-09 09:35:26
;   baseProfile,Prusa Mendel (modified)
;   printMaterial,PLA
;   printQuality,NORMAL 0.2mm
;   printExtruders,
;   extruderName,Primary Extruder
;   extruderToolheadNumber,0
;   extruderDiameter,0.4
;   extruderAutoWidth,0
;   extruderWidth,0.48
;   extrusionMultiplier,1
;   extruderUseRetract,1
;   extruderRetractionDistance,0.8
;   extruderExtraRestartDistance,0
;   extruderRetractionZLift,0.5
;   extruderRetractionSpeed,1800
;   extruderUseCoasting,1
;   extruderCoastingDistance,0.2
;   extruderUseWipe,1
;   extruderWipeDistance,2
;   primaryExtruder,0
;   layerHeight,0.2
;   topSolidLayers,5
;   bottomSolidLayers,7
;   perimeterOutlines,3
;   printPerimetersInsideOut,1
;   startPointOption,1
;   startPointOriginX,0
;   startPointOriginY,0
;   startPointOriginZ,0
;   sequentialIslands,0
;   spiralVaseMode,0
;   firstLayerHeightPercentage,100
;   firstLayerWidthPercentage,94
;   firstLayerUnderspeed,0.4
;   useRaft,0
;   raftExtruder,0
;   raftLayers,3
;   raftOffset,3
;   raftSeparationDistance,0.14
;   raftInfill,85
;   disableRaftBaseLayers,0
;   useSkirt,1
;   skirtExtruder,0
;   skirtLayers,1
;   skirtOutlines,1
;   skirtOffset,1.8
;   usePrimePillar,0
;   primePillarExtruder,999
;   primePillarWidth,12
;   primePillarLocation,7
;   primePillarSpeedMultiplier,1
;   useOozeShield,0
;   oozeShieldExtruder,999
;   oozeShieldOffset,2
;   oozeShieldOutlines,1
;   oozeShieldSidewallShape,1
;   oozeShieldSidewallAngle,30
;   oozeShieldSpeedMultiplier,1
;   infillExtruder,0
;   internalInfillPattern,Triangular
;   externalInfillPattern,Rectilinear
;   infillPercentage,0
;   outlineOverlapPercentage,20
;   infillExtrusionWidthPercentage,100
;   minInfillLength,2
;   infillLayerInterval,1
;   infillAngles,0,60,-60
;   overlapInfillAngles,1
;   generateSupport,0
;   supportExtruder,0
;   supportInfillPercentage,15
;   supportExtraInflation,0.2
;   denseSupportLayers,5
;   denseSupportInfillPercentage,70
;   supportLayerInterval,1
;   supportHorizontalPartOffset,0.2
;   supportUpperSeparationLayers,1
;   supportLowerSeparationLayers,1
;   supportType,1
;   supportGridSpacing,3
;   maxOverhangAngle,45
;   supportAngles,0,45,-45,90,60
;   temperatureName,Primary Extruder,Heated Bed
;   temperatureNumber,0,1
;   temperatureSetpointCount,7,1
;   temperatureSetpointLayers,1,90,170,240,316,390,465,1
;   temperatureSetpointTemperatures,195,200,205,210,215,220,225,55
;   temperatureStabilizeAtStartup,1,1
;   temperatureHeatedBed,0,1
;   temperatureRelayBetweenLayers,0,0
;   temperatureRelayBetweenLoops,0,0
;   fanLayers,1,2
;   fanSpeeds,0,100
;   blipFanToFullPower,1
;   adjustSpeedForCooling,1
;   minSpeedLayerTime,15
;   minCoolingSpeedSlowdown,5
;   increaseFanForCooling,1
;   minFanLayerTime,15
;   maxCoolingFanSpeed,100
;   increaseFanForBridging,1
;   bridgingFanSpeed,100
;   use5D,1
;   relativeEdistances,1
;   allowEaxisZeroing,1
;   independentExtruderAxes,0
;   includeM10123,0
;   stickySupport,1
;   applyToolheadOffsets,0
;   gcodeXoffset,0
;   gcodeYoffset,0
;   gcodeZoffset,0
;   overrideMachineDefinition,1
;   machineTypeOverride,0
;   strokeXoverride,250
;   strokeYoverride,210
;   strokeZoverride,200
;   originOffsetXoverride,0
;   originOffsetYoverride,0
;   originOffsetZoverride,0
;   homeXdirOverride,-1
;   homeYdirOverride,-1
;   homeZdirOverride,-1
;   flipXoverride,1
;   flipYoverride,-1
;   flipZoverride,1
;   toolheadOffsets,0,0|0,0|0,0|0,0|0,0|0,0
;   overrideFirmwareConfiguration,0
;   firmwareTypeOverride,RepRap (Marlin/Repetier/Sprinter)
;   GPXconfigOverride,r2
;   baudRateOverride,250000
;   overridePrinterModels,1
;   printerModelsOverride,Heatbed-MK42.stl
;   startingGcode,M115 U3.0.9 ; tell the printer latest firmware varsion available,G28 W ; home all without mesh bed level,M301 P24.54 I2.07 D72.87,M304 P98.32 I4.04 D598.06,M104 S[extruder0_temperature] T0 ; this will take the layer 1 temperature for extruder 0,M140 S[bed1_temperature] ; this will take the layer 1 temperature for bed 0,G1 Z40 X250 Y-3.0 F3000,M190 S[bed1_temperature] ; this will take the layer 1 temperature for bed 0,M109 S[extruder0_temperature] T0 ; this will take the layer 1 temperature for extruder 0,G80 ; mesh bed leveling,G1 Y-3.0 F1000.0 ; go outside printing area,G1 X60.0 E9.0 F1000.0 ; intro line,G1 X100.0 E12.5 F1000.0 ; intro line
;   layerChangeGcode,
;   retractionGcode,
;   toolChangeGcode,
;   endingGcode,M104 S0 ; turn off temperature,M140 S0 ; turn off heatbed,M107 ; turn off fan,G1 X0 Y200; home X axis,M84 ; disable motors
;   exportFileFormat,gcode
;   celebration,0
;   celebrationSong,Random Song
;   postProcessing,{REPLACE "; outer perimeter\n" "; outer perimeter\nM204 S800\n"},{REPLACE "; inner perimeter\n" "; inner perimeter\nM204 S800\n"},{REPLACE "; solid layer\n" "; solid layer\nM204 S1000\n"},{REPLACE "; infill\n" "; infill\nM204 S2000\n"}
;   defaultSpeed,2400
;   outlineUnderspeed,0.8
;   solidInfillUnderspeed,0.8
;   supportUnderspeed,0.8
;   rapidXYspeed,4800
;   rapidZspeed,1200
;   minBridgingArea,50
;   bridgingExtraInflation,6
;   bridgingExtrusionMultiplier,1
;   bridgingSpeedMultiplier,1
;   filamentDiameter,1.7
;   filamentPricePerKg,45
;   filamentDensity,1.25
;   useMinPrintHeight,0
;   minPrintHeight,0
;   useMaxPrintHeight,0
;   maxPrintHeight,29
;   useDiaphragm,0
;   diaphragmLayerInterval,20
;   robustSlicing,1
;   mergeAllIntoSolid,0
;   onlyRetractWhenCrossingOutline,0
;   retractBetweenLayers,1
;   useRetractionMinTravel,1
;   retractionMinTravel,3
;   retractWhileWiping,1
;   onlyWipeOutlines,1
;   avoidCrossingOutline,0
;   maxMovementDetourFactor,3
;   toolChangeRetractionDistance,12
;   toolChangeExtraRestartDistance,-0.5
;   toolChangeRetractionSpeed,600
;   allowThinWallGapFill,1
;   thinWallAllowedOverlapPercentage,25
;   horizontalSizeCompensation,0
G90
M83
M106 S0
M115 U3.0.9 ; tell the printer latest firmware varsion available
G28 W ; home all without mesh bed level
M301 P24.54 I2.07 D72.87
M304 P98.32 I4.04 D598.06
M104 S195 T0 ; this will take the layer 1 temperature for extruder 0
M140 S55 ; this will take the layer 1 temperature for bed 0
G1 Z40 X250 Y-3.0 F3000
M190 S55 ; this will take the layer 1 temperature for bed 0
M109 S195 T0 ; this will take the layer 1 temperature for extruder 0
G80 ; mesh bed leveling
G1 Y-3.0 F1000.0 ; go outside printing area
G1 X60.0 E9.0 F1000.0 ; intro line
G1 X100.0 E12.5 F1000.0 ; intro line
G1 E-0.8000 F1800
G1 Z0.700 F1200
; layer 1, Z = 0.2
T0
; tool H0.200 W0.451
; skirt
G1 X107.997 Y89.118 F4800
G1 Z0.200 F1200
G1 E0.8000 F540
G1 X109.118 Y87.997 E0.0631 F960
G1 X109.207 Y87.960 E0.0038
G1 X140.793 Y87.960 E1.2558
G1 X140.882 Y87.997 E0.0038
G1 X142.003 Y89.118 E0.0631
G1 X142.040 Y89.207 E0.0038
G1 X142.040 Y120.793 E1.2558
G1 X142.003 Y120.882 E0.0038
G1 X140.882 Y122.003 E0.0631
G1 X140.793 Y122.040 E0.0038
G1 X109.207 Y122.040 E1.2558
G1 X109.118 Y122.003 E0.0038
G1 X107.997 Y120.882 E0.0631
G1 X107.960 Y120.793 E0.0038
G1 X107.960 Y89.311 E1.2516
G1 X107.960 Y89.207 F960
G1 X107.997 Y89.118 F960
G1 E-0.8000 F1800
G1 Z0.700 F1200
; inner perimeter
M204 S800
G1 X111.128 Y118.872 F4800
G1 Z0.200 F1200
G1 E0.8000 F1800
G1 X111.128 Y91.128 E1.1030 F896
G1 X138.872 Y91.128 E1.1030
G1 X138.872 Y118.872 E1.1030
G1 X111.328 Y118.872 E1.0951
G1 X111.128 Y118.872 F896
; inner perimeter
M204 S800
G1 X110.677 Y119.323 F4800
G1 X110.677 Y90.677 E1.1389 F832
G1 X139.323 Y90.677 E1.1389
G1 X139.323 Y119.323 E1.1389
G1 X110.877 Y119.323 E1.1309
G1 X110.677 Y119.323 F832
; outer perimeter
M204 S800
G1 X110.226 Y119.774 F4800
G1 X110.226 Y90.226 E1.1748 F768
G1 X139.774 Y90.226 E1.1748
G1 X139.774 Y119.774 E1.1748
G1 X110.426 Y119.774 E1.1668
G1 X110.226 Y119.774 F768
G1 X110.226 Y117.774 F2400
; solid layer
M204 S1000
G1 X111.711 Y118.511 F4800
G1 X111.489 Y118.289 E0.0125 F768
G1 X111.489 Y117.651 E0.0254
G1 X112.349 Y118.511 E0.0484
G1 X112.987 Y118.511 E0.0254
G1 X111.489 Y117.013 E0.0842
G1 X111.489 Y116.375 E0.0254
G1 X113.625 Y118.511 E0.1201
G1 X114.264 Y118.511 E0.0254
G1 X111.489 Y115.736 E0.1560
G1 X111.489 Y115.098 E0.0254
G1 X114.902 Y118.511 E0.1919
G1 X115.540 Y118.511 E0.0254
G1 X111.489 Y114.460 E0.2278
G1 X111.489 Y113.822 E0.0254
G1 X116.178 Y118.511 E0.2636
G1 X116.816 Y118.511 E0.0254
G1 X111.489 Y113.184 E0.2995
G1 X111.489 Y112.546 E0.0254
G1 X117.454 Y118.511 E0.3354
G1 X118.092 Y118.511 E0.0254
G1 X111.489 Y111.908 E0.3713
G1 X111.489 Y111.270 E0.0254
G1 X118.730 Y118.511 E0.4071
G1 X119.368 Y118.511 E0.0254
G1 X111.489 Y110.632 E0.4430
G1 X111.489 Y109.994 E0.0254
G1 X120.006 Y118.511 E0.4789
G1 X120.644 Y118.511 E0.0254
G1 X111.489 Y109.356 E0.5148
G1 X111.489 Y108.717 E0.0254
G1 X121.283 Y118.511 E0.5506
G1 X121.921 Y118.511 E0.0254
G1 X111.489 Y108.079 E0.5865
G1 X111.489 Y107.441 E0.0254
G1 X122.559 Y118.511 E0.6224
G1 X123.197 Y118.511 E0.0254
G1 X111.489 Y106.803 E0.6583
G1 X111.489 Y106.165 E0.0254
G1 X123.835 Y118.511 E0.6941
G1 X124.473 Y118.511 E0.0254
G1 X111.489 Y105.527 E0.7300
G1 X111.489 Y104.889 E0.0254
G1 X125.111 Y118.511 E0.7659
G1 X125.749 Y118.511 E0.0254
G1 X111.489 Y104.251 E0.8018
G1 X111.489 Y103.613 E0.0254
G1 X126.387 Y118.511 E0.8377
G1 X127.025 Y118.511 E0.0254
G1 X111.489 Y102.975 E0.8735
G1 X111.489 Y102.337 E0.0254
G1 X127.663 Y118.511 E0.9094
G1 X128.302 Y118.511 E0.0254
G1 X111.489 Y101.698 E0.9453
G1 X111.489 Y101.060 E0.0254
G1 X128.940 Y118.511 E0.9812
G1 X129.578 Y118.511 E0.0254
G1 X111.489 Y100.422 E1.0170
G1 X111.489 Y99.784 E0.0254
G1 X130.216 Y118.511 E1.0529
G1 X130.854 Y118.511 E0.0254
G1 X111.489 Y99.146 E1.0888
G1 X111.489 Y98.508 E0.0254
G1 X131.492 Y118.511 E1.1247
G1 X132.130 Y118.511 E0.0254
G1 X111.489 Y97.870 E1.1605
G1 X111.489 Y97.232 E0.0254
G1 X132.768 Y118.511 E1.1964
G1 X133.406 Y118.511 E0.0254
G1 X111.489 Y96.594 E1.2323
G1 X111.489 Y95.956 E0.0254
G1 X134.044 Y118.511 E1.2682
G1 X134.682 Y118.511 E0.0254
G1 X111.489 Y95.318 E1.3040
G1 X111.489 Y94.679 E0.0254
G1 X135.321 Y118.511 E1.3399
G1 X135.959 Y118.511 E0.0254
G1 X111.489 Y94.041 E1.3758
G1 X111.489 Y93.403 E0.0254
G1 X136.597 Y118.511 E1.4117
G1 X137.235 Y118.511 E0.0254
G1 X111.489 Y92.765 E1.4476
G1 X111.489 Y92.127 E0.0254
G1 X137.873 Y118.511 E1.4834
G1 X138.511 Y118.511 E0.0254
G1 X111.489 Y91.489 E1.5193
G1 X112.127 Y91.489 E0.0254
G1 X138.511 Y117.873 E1.4834
G1 X138.511 Y117.235 E0.0254
G1 X112.765 Y91.489 E1.4476
G1 X113.403 Y91.489 E0.0254
G1 X138.511 Y116.597 E1.4117
G1 X138.511 Y115.959 E0.0254
G1 X114.041 Y91.489 E1.3758
G1 X114.679 Y91.489 E0.0254
G1 X138.511 Y115.321 E1.3399
G1 X138.511 Y114.682 E0.0254
G1 X115.318 Y91.489 E1.3040
G1 X115.956 Y91.489 E0.0254
G1 X138.511 Y114.044 E1.2682
G1 X138.511 Y113.406 E0.0254
G1 X116.594 Y91.489 E1.2323
G1 X117.232 Y91.489 E0.0254
G1 X138.511 Y112.768 E1.1964
G1 X138.511 Y112.130 E0.0254
G1 X117.870 Y91.489 E1.1605
G1 X118.508 Y91.489 E0.0254
G1 X138.511 Y111.492 E1.1247
G1 X138.511 Y110.854 E0.0254
G1 X119.146 Y91.489 E1.0888
G1 X119.784 Y91.489 E0.0254
G1 X138.511 Y110.216 E1.0529
G1 X138.511 Y109.578 E0.0254
G1 X120.422 Y91.489 E1.0170
G1 X121.060 Y91.489 E0.0254
G1 X138.511 Y108.940 E0.9812
G1 X138.511 Y108.302 E0.0254
G1 X121.698 Y91.489 E0.9453
G1 X122.337 Y91.489 E0.0254
G1 X138.511 Y107.663 E0.9094
G1 X138.511 Y107.025 E0.0254
G1 X122.975 Y91.489 E0.8735
G1 X123.613 Y91.489 E0.0254
G1 X138.511 Y106.387 E0.8377
G1 X138.511 Y105.749 E0.0254
G1 X124.251 Y91.489 E0.8018
G1 X124.889 Y91.489 E0.0254
G1 X138.511 Y105.111 E0.7659
G1 X138.511 Y104.473 E0.0254
G1 X125.527 Y91.489 E0.7300
G1 X126.165 Y91.489 E0.0254
G1 X138.511 Y103.835 E0.6941
G1 X138.511 Y103.197 E0.0254
G1 X126.803 Y91.489 E0.6583
G1 X127.441 Y91.489 E0.0254
G1 X138.511 Y102.559 E0.6224
G1 X138.511 Y101.921 E0.0254
G1 X128.079 Y91.489 E0.5865
G1 X128.717 Y91.489 E0.0254
G1 X138.511 Y101.283 E0.5506
G1 X138.511 Y100.644 E0.0254
G1 X129.356 Y91.489 E0.5148
G1 X129.994 Y91.489 E0.0254
G1 X138.511 Y100.006 E0.4789
G1 X138.511 Y99.368 E0.0254
G1 X130.632 Y91.489 E0.4430
G1 X131.270 Y91.489 E0.0254
G1 X138.511 Y98.730 E0.4071
G1 X138.511 Y98.092 E0.0254
G1 X131.908 Y91.489 E0.3713
G1 X132.546 Y91.489 E0.0254
G1 X138.511 Y97.454 E0.3354
G1 X138.511 Y96.816 E0.0254
G1 X133.184 Y91.489 E0.2995
G1 X133.822 Y91.489 E0.0254
G1 X138.511 Y96.178 E0.2636
G1 X138.511 Y95.540 E0.0254
G1 X134.460 Y91.489 E0.2277
G1 X135.098 Y91.489 E0.0254
G1 X138.511 Y94.902 E0.1919
G1 X138.511 Y94.263 E0.0254
G1 X135.737 Y91.489 E0.1560
G1 X136.375 Y91.489 E0.0254
G1 X138.511 Y93.625 E0.1201
G1 X138.511 Y92.987 E0.0254
G1 X137.013 Y91.489 E0.0842
G1 X137.651 Y91.489 E0.0254
G1 X138.511 Y92.349 E0.0484
G1 X138.511 Y91.711 E0.0254
G1 X138.431 Y91.631 E0.0045
G1 X138.289 Y91.489 F768
G1 E-0.8000 F1800
G1 Z0.900 F1200
; layer 2, Z = 0.4
M106 S255
; tool H0.200 W0.480
; inner perimeter
M204 S800
G1 X111.200 Y118.800 F4800
G1 Z0.400 F1200
G1 E0.8000 F1800
G1 X111.200 Y91.200 E1.1673 F2240
G1 X138.800 Y91.200 E1.1673
G1 X138.800 Y118.800 E1.1673
G1 X111.400 Y118.800 E1.1589
G1 X111.200 Y118.800 F2240
; inner perimeter
M204 S800
G1 X110.720 Y119.280 F4800
G1 X110.720 Y90.720 E1.2079 F2080
G1 X139.280 Y90.720 E1.2079
G1 X139.280 Y119.280 E1.2079
G1 X110.920 Y119.280 E1.1995
G1 X110.720 Y119.280 F2080
; outer perimeter
M204 S800
G1 X110.240 Y119.760 F4800
G1 X110.240 Y90.240 E1.2485 F1920
G1 X139.760 Y90.240 E1.2485
G1 X139.760 Y119.760 E1.2485
G1 X110.440 Y119.760 E1.2401
G1 X110.240 Y119.760 F1920
G1 X110.240 Y118.693 E-0.8000 F2400
G1 X110.240 Y117.760 F2400
G1 Z0.900 F1200
; solid layer
M204 S1000
G1 X111.584 Y91.942 F4800
G1 Z0.400 F1200
G1 E0.8000 F1800
G1 X111.942 Y91.584 E0.0214 F1920
G1 X112.621 Y91.584 E0.0287
G1 X111.584 Y92.621 E0.0620
G1 X111.584 Y93.300 E0.0287
G1 X113.300 Y91.584 E0.1026
G1 X113.978 Y91.584 E0.0287
G1 X111.584 Y93.978 E0.1432
G1 X111.584 Y94.657 E0.0287
G1 X114.657 Y91.584 E0.1838
G1 X115.336 Y91.584 E0.0287
G1 X111.584 Y95.336 E0.2244
G1 X111.584 Y96.015 E0.0287
G1 X116.015 Y91.584 E0.2650
G1 X116.694 Y91.584 E0.0287
G1 X111.584 Y96.694 E0.3056
G1 X111.584 Y97.373 E0.0287
G1 X117.373 Y91.584 E0.3462
G1 X118.051 Y91.584 E0.0287
G1 X111.584 Y98.051 E0.3868
G1 X111.584 Y98.730 E0.0287
G1 X118.730 Y91.584 E0.4274
G1 X119.409 Y91.584 E0.0287
G1 X111.584 Y99.409 E0.4680
G1 X111.584 Y100.088 E0.0287
G1 X120.088 Y91.584 E0.5086
G1 X120.767 Y91.584 E0.0287
G1 X111.584 Y100.767 E0.5492
G1 X111.584 Y101.445 E0.0287
G1 X121.445 Y91.584 E0.5898
G1 X122.124 Y91.584 E0.0287
G1 X111.584 Y102.124 E0.6305
G1 X111.584 Y102.803 E0.0287
G1 X122.803 Y91.584 E0.6711
G1 X123.482 Y91.584 E0.0287
G1 X111.584 Y103.482 E0.7117
G1 X111.584 Y104.161 E0.0287
G1 X124.161 Y91.584 E0.7523
G1 X124.840 Y91.584 E0.0287
G1 X111.584 Y104.840 E0.7929
G1 X111.584 Y105.518 E0.0287
G1 X125.518 Y91.584 E0.8335
G1 X126.197 Y91.584 E0.0287
G1 X111.584 Y106.197 E0.8741
G1 X111.584 Y106.876 E0.0287
G1 X126.876 Y91.584 E0.9147
G1 X127.555 Y91.584 E0.0287
G1 X111.584 Y107.555 E0.9553
G1 X111.584 Y108.234 E0.0287
G1 X128.234 Y91.584 E0.9959
G1 X128.913 Y91.584 E0.0287
G1 X111.584 Y108.913 E1.0365
G1 X111.584 Y109.591 E0.0287
G1 X129.591 Y91.584 E1.0771
G1 X130.270 Y91.584 E0.0287
G1 X111.584 Y110.270 E1.1177
G1 X111.584 Y110.949 E0.0287
G1 X130.949 Y91.584 E1.1583
G1 X131.628 Y91.584 E0.0287
G1 X111.584 Y111.628 E1.1989
G1 X111.584 Y112.307 E0.0287
G1 X132.307 Y91.584 E1.2395
G1 X132.985 Y91.584 E0.0287
G1 X111.584 Y112.985 E1.2801
G1 X111.584 Y113.664 E0.0287
G1 X133.664 Y91.584 E1.3207
G1 X134.343 Y91.584 E0.0287
G1 X111.584 Y114.343 E1.3613
G1 X111.584 Y115.022 E0.0287
G1 X135.022 Y91.584 E1.4019
G1 X135.701 Y91.584 E0.0287
G1 X111.584 Y115.701 E1.4425
G1 X111.584 Y116.380 E0.0287
G1 X136.380 Y91.584 E1.4831
G1 X137.058 Y91.584 E0.0287
G1 X111.584 Y117.058 E1.5237
G1 X111.584 Y117.737 E0.0287
G1 X137.737 Y91.584 E1.5643
